X: 1
T:Lad O'Beirne's
C:Lad O'Beirne
R:reel
D:Arty McGlynn & Nollaig Casey: Lead the Knave
D:Dervish: The Boys of Sligo
Z:id:hn-reel-220
M:C|
K:G
DG~G2 DGBG|(3ABc BG AGEG|DGGF GABd|egdg edge|
dB~B2 dBGB|cE~E2 GEDB,|DEGA B2eB|1 dBAd BGGE:|2 dBAd BGGA||
|:Bdd^c d2ef|g2bg abge|dB~B2 GBdB|cE~E2 GED2|
Bdd^c d2ef|g2bg abge|DEGA B2eB|1 dBAd BGGA:|2 dBAd BGGE||
"Variations:"
DG~G2 DGBG|c2BG AFGE|DGGF GABd|(3efg dB cdge|
dB~B2 GBdB|cE~E2 GEDE|DEGA B2Bc|1 dBAc BGGE:|2 dBAc BGGA||
BddB d2ef|g2fg efge|dB~B2 dBGB|cE~E2 GEDB,|
BddB d2ef|g2fg efge|DEGA B2eB|dBAc BGGA||
~d3B d2 (3Bcd|~e3d efge|dB~B2 GBdB|cE~E2 GEDA|
BddB d2ef|g2af gedB|~G3A B2Bc|dBAd BGGE||
